X: 25302
T: Man Who Died And Rose Again, The
R: jig
M: 6/8
K: Gmajor
"G" BGA G2 A|BGe e2 d|GBA G2 B|"D7" AFD AFD|
"G" GBA G2 A|BAB dcd|"D7" edB edB|"D7" AFD DFD:|
"Em" gef g2 a2|bge e2 f|"D7" gef g2 b|afd dcd|
"G" GFG AGA|BAB dcd|"D7" edB edB|"D7" AFD DFD:|

